X: 109
T: REEL: Alice's
C: C: Frankie Gavin; S: Various
C: Set Leaders: Tania, Anton
Z: Anton Zille ed., Oleg Naumov arr.; JACKB at The Session
N: https://thesession.org/members/26966/sets/92420
R: Reel
M: 4/4
L: 1/8
Q: 1/2=100
K: Bmin
|:"Bm"Bdfd edBA|"Bm"B2dB ABFA|"G"Bdfd e2 fa|"A"bfaf edBA|
"Bm"Bdfd edBA|"A"B2dB ABFB|"F#m"AFEF ABde|1 "G"f2 ef "A"dBBA:|2 "G"fdec "A"dBBc||
"D"d2 AF Adfd|"G"e2 BG "A"Bgfe|"D"d2 AF Adfd|"G"egfe "A"dBBc|
"D"d2 AF Adfd|"G"e2 BG "A"Bgfe|"Bm7"d2 AF Adfd|"G"e/f/g fe "A"dBBA||

